build/svg/cmd/sc_extrusiontiltleft.svg

<?xml version="1.0" encoding="UTF-8" standalone="no"?>
<svg
   xmlns:dc="http://purl.org/dc/elements/1.1/"
   xmlns:cc="http://creativecommons.org/ns#"
   xmlns:rdf="http://www.w3.org/1999/02/22-rdf-syntax-ns#"
   xmlns:svg="http://www.w3.org/2000/svg"
   xmlns="http://www.w3.org/2000/svg"
   xmlns:sodipodi="http://sodipodi.sourceforge.net/DTD/sodipodi-0.dtd"
   xmlns:inkscape="http://www.inkscape.org/namespaces/inkscape"
   viewBox="0 0 16 16"
   version="1.1"
   id="svg6"
   sodipodi:docname="sc_extrusiontiltleft.svg"
   inkscape:export-filename="/home/jupiter007/Libreoffice yaru theme fullcolor/build/cmd/sc_extrusiontiltleft.png"
   inkscape:export-xdpi="96"
   inkscape:export-ydpi="96"
   inkscape:version="0.92.5 (2060ec1f9f, 2020-04-08)">
  <metadata
     id="metadata12">
    <rdf:RDF>
      <cc:Work
         rdf:about="">
        <dc:format>image/svg+xml</dc:format>
        <dc:type
           rdf:resource="http://purl.org/dc/dcmitype/StillImage" />
      </cc:Work>
    </rdf:RDF>
  </metadata>
  <defs
     id="defs10" />
  <sodipodi:namedview
     pagecolor="#ffffff"
     bordercolor="#666666"
     borderopacity="1"
     objecttolerance="10"
     gridtolerance="10"
     guidetolerance="10"
     inkscape:pageopacity="0"
     inkscape:pageshadow="2"
     inkscape:window-width="1920"
     inkscape:window-height="1011"
     id="namedview8"
     showgrid="true"
     inkscape:zoom="20.85965"
     inkscape:cx="-1.3563957"
     inkscape:cy="8.7545724"
     inkscape:window-x="1920"
     inkscape:window-y="32"
     inkscape:window-maximized="1"
     inkscape:current-layer="svg6">
    <inkscape:grid
       type="xygrid"
       id="grid824" />
  </sodipodi:namedview>
  <path
     style="fill:#000000;stroke:#000000;opacity:0.6;stroke-width:2;stroke-miterlimit:4;stroke-dasharray:none;stroke-linejoin:round"
     id="path822"
     d="m9 2v12h1v-12z"
     fill="#762572" />
  <path
     d="m9 2v12h1v-12z"
     id="path4"
     style="fill:#ffffff"
     fill="#762572" />
  <path
     id="path846"
     d="M 5 2 L 2 5 L 5 8 L 5 6 L 7 6 L 12 6 C 12.552285 6 13 6.8954305 13 8 C 13 9.1045695 12.552285 10 12 10 L 11 10 L 11 12 L 12 12 C 13.656854 12 15 10.209139 15 8 C 15 5.790861 13.656854 4 12 4 L 7 4 L 5 4 L 5 2 z "
     style="fill:#000000;fill-opacity:1;stroke:#000000;stroke-width:2;stroke-linecap:butt;stroke-linejoin:round;stroke-opacity:1;opacity:0.6;stroke-miterlimit:4;stroke-dasharray:none" />
  <path
     style="fill:#e97cc8;fill-opacity:1;stroke:none;stroke-width:1px;stroke-linecap:butt;stroke-linejoin:miter;stroke-opacity:1"
     d="M 5 2 L 2 5 L 5 8 L 5 6 L 7 6 L 12 6 C 12.552285 6 13 6.8954305 13 8 C 13 9.1045695 12.552285 10 12 10 L 11 10 L 11 12 L 12 12 C 13.656854 12 15 10.209139 15 8 C 15 5.790861 13.656854 4 12 4 L 7 4 L 5 4 L 5 2 z "
     id="path845" />
</svg>

<svg xmlns="http://www.w3.org/2000/svg" viewBox="0 0 16 16"><path d="M9 2v12h1V2z" stroke="#000" opacity=".6" stroke-width="2" stroke-linejoin="round"/><path d="M9 2v12h1V2z" fill="#fff"/><path d="M5 2L2 5l3 3V6h7c.552 0 1 .895 1 2s-.448 2-1 2h-1v2h1c1.657 0 3-1.79 3-4s-1.343-4-3-4H5V2z" stroke="#000" stroke-width="2" stroke-linejoin="round" opacity=".6"/><path d="M5 2L2 5l3 3V6h7c.552 0 1 .895 1 2s-.448 2-1 2h-1v2h1c1.657 0 3-1.79 3-4s-1.343-4-3-4H5V2z" fill="#e97cc8"/></svg>
